public/logos/NH.svg

<?xml version="1.0" encoding="UTF-8"?>
<svg xmlns="http://www.w3.org/2000/svg" xmlns:xlink="http://www.w3.org/1999/xlink" width="176pt" height="44.37pt" viewBox="0 0 176 44.37" version="1.1">
<defs>
<clipPath id="clip1">
  <path d="M 39 5 L 81 5 L 81 44.371094 L 39 44.371094 Z M 39 5 "/>
</clipPath>
<clipPath id="clip2">
  <path d="M 0 5 L 38 5 L 38 44.371094 L 0 44.371094 Z M 0 5 "/>
</clipPath>
<clipPath id="clip3">
  <path d="M 75 5 L 112 5 L 112 44.371094 L 75 44.371094 Z M 75 5 "/>
</clipPath>
<clipPath id="clip4">
  <path d="M 114 0 L 176 0 L 176 44.371094 L 114 44.371094 Z M 114 0 "/>
</clipPath>
<clipPath id="clip5">
  <path d="M 114 0 L 169 0 L 169 44.371094 L 114 44.371094 Z M 114 0 "/>
</clipPath>
</defs>
<g id="surface1">
<g clip-path="url(#clip1)" clip-rule="nonzero">
<path style=" stroke:none;fill-rule:evenodd;fill:rgb(14.485168%,28.276062%,57.102966%);fill-opacity:1;" d="M 46.40625 5.824219 L 59.613281 5.824219 L 68.21875 35.699219 C 68.558594 36.648438 69.371094 36.375 69.507812 35.699219 L 74.992188 5.824219 L 80.820312 5.824219 L 73.976562 44.371094 L 60.496094 44.371094 L 52.09375 14.765625 C 51.824219 13.953125 51.011719 13.75 50.742188 14.832031 L 45.457031 44.371094 L 39.359375 44.371094 L 46.40625 5.824219 "/>
</g>
<g clip-path="url(#clip2)" clip-rule="nonzero">
<path style=" stroke:none;fill-rule:evenodd;fill:rgb(14.485168%,28.276062%,57.102966%);fill-opacity:1;" d="M 22.421875 5.824219 L 35.292969 5.824219 L 37.867188 44.371094 L 28.25 44.371094 L 28.046875 40.035156 C 28.046875 39.085938 27.300781 38.410156 26.351562 38.410156 L 11.515625 38.410156 L 14.769531 32.921875 L 24.929688 32.921875 C 26.082031 32.921875 27.4375 33.054688 27.367188 31.5 L 26.285156 14.222656 C 26.285156 13.070312 25.269531 12.53125 24.660156 13.613281 L 6.570312 44.371094 L 0 44.371094 L 22.421875 5.824219 "/>
</g>
<g clip-path="url(#clip3)" clip-rule="nonzero">
<path style=" stroke:none;fill-rule:evenodd;fill:rgb(14.485168%,28.276062%,57.102966%);fill-opacity:1;" d="M 95.65625 5.824219 L 108.59375 5.824219 L 111.644531 44.371094 L 101.953125 44.371094 L 101.753906 40.035156 C 101.753906 39.085938 101.074219 38.410156 100.125 38.410156 L 86.511719 38.410156 L 89.695312 32.921875 L 98.703125 32.921875 C 99.855469 32.921875 101.210938 33.054688 101.074219 31.5 L 99.515625 14.222656 C 99.515625 13.070312 98.5 12.53125 97.890625 13.613281 L 82.039062 44.371094 L 75.46875 44.371094 L 95.65625 5.824219 "/>
</g>
<g clip-path="url(#clip4)" clip-rule="nonzero">
<path style=" stroke:none;fill-rule:evenodd;fill:rgb(27.305603%,70.903015%,81.196594%);fill-opacity:1;" d="M 150.527344 44.371094 L 176 -0.00390625 L 139.894531 -0.00390625 L 114.421875 44.371094 L 150.527344 44.371094 "/>
</g>
<g clip-path="url(#clip5)" clip-rule="nonzero">
<path style=" stroke:none;fill-rule:evenodd;fill:rgb(14.485168%,28.276062%,57.102966%);fill-opacity:1;" d="M 143.414062 44.371094 L 168.886719 -0.00390625 L 139.894531 -0.00390625 L 114.421875 44.371094 L 143.414062 44.371094 "/>
</g>
</g>
</svg>

<svg xmlns="http://www.w3.org/2000/svg" width="176pt" height="59.16" viewBox="0 0 176 44.37"><defs><clipPath id="a"><path d="M39 5h42v39.371H39Zm0 0"/></clipPath><clipPath id="b"><path d="M0 5h38v39.371H0Zm0 0"/></clipPath><clipPath id="c"><path d="M75 5h37v39.371H75Zm0 0"/></clipPath><clipPath id="d"><path d="M114 0h62v44.371h-62Zm0 0"/></clipPath><clipPath id="e"><path d="M114 0h55v44.371h-55Zm0 0"/></clipPath></defs><g clip-path="url(#a)"><path d="M46.406 5.824h13.207L68.22 35.7c.34.95 1.152.676 1.289 0l5.484-29.875h5.828l-6.843 38.547h-13.48l-8.403-29.605c-.27-.813-1.082-1.016-1.352.066l-5.285 29.54h-6.098z" style="stroke:none;fill-rule:evenodd;fill:#254892;fill-opacity:1"/></g><g clip-path="url(#b)"><path d="M22.422 5.824h12.871l2.574 38.547H28.25l-.203-4.336c0-.95-.746-1.625-1.695-1.625H11.516l3.254-5.488h10.16c1.152 0 2.508.133 2.437-1.422l-1.082-17.277c0-1.153-1.015-1.692-1.625-.61L6.57 44.371H0z" style="stroke:none;fill-rule:evenodd;fill:#254892;fill-opacity:1"/></g><g clip-path="url(#c)"><path d="M95.656 5.824h12.938l3.05 38.547h-9.69l-.2-4.336c0-.95-.68-1.625-1.629-1.625H86.512l3.183-5.488h9.008c1.152 0 2.508.133 2.371-1.422l-1.558-17.277c0-1.153-1.016-1.692-1.625-.61L82.039 44.371h-6.57z" style="stroke:none;fill-rule:evenodd;fill:#254892;fill-opacity:1"/></g><g clip-path="url(#d)"><path d="M150.527 44.371 176-.004h-36.105l-25.473 44.375z" style="stroke:none;fill-rule:evenodd;fill:#46b5cf;fill-opacity:1"/></g><g clip-path="url(#e)"><path d="M143.414 44.371 168.887-.004h-28.992l-25.473 44.375z" style="stroke:none;fill-rule:evenodd;fill:#254892;fill-opacity:1"/></g></svg>
